!!!!SEGMENT: Lhe2014-O_clemens_o_pia_virgo.krn
!!!id: Lhe2014
!!!AGN: Motet
!!!voices: 4
!!!COM: Jean Lhéritier
!!!OTL: O clemens o pia virgo
**kern	**kern	**kern	**kern
*part4	*part3	*part2	*part1
*staff4	*staff3	*staff2	*staff1
*I"Bassus	*I"Tenor	*I"Altus	*I"Superius
*I'B	*I'T	*I'A	*I'S
*clefF4	*clefGv2	*clefGv2	*clefG2
*k[b-]	*k[b-]	*k[b-]	*k[b-]
*F:	*F:	*F:	*F:
*M2/1	*M2/1	*M2/1	*M2/1
*met(C|)	*met(C|)	*met(C|)	*met(C|)
!!section: Prima pars: O clemens o pia virgo
!!!OMD: Prima pars: O clemens o pia virgo
0r	0r	0r	1.cc
.	.	.	2cc
=1	=1	=1	=1
0r	0r	0r	1a
.	.	.	[1dd
=2	=2	=2	=2
0r	0r	1.f	2dd]
.	.	.	2cc
.	.	.	1cc
.	.	2f	.
=3	=3	=3	=3
0r	0r	1d	2.ff
.	.	.	4ee
.	.	[1g	2dd
.	.	.	2cc
=4	=4	=4	=4
0r	0r	2g]	2b-y
.	.	2f	4a
.	.	.	4g
.	.	1f	1a
=5	=5	=5	=5
0r	0r	2.b-y	2.g
.	.	4a	4a
.	.	2g	4b-y
.	.	.	4cc
.	.	2f	[2dd
=6	=6	=6	=6
0r	0r	2.e	4dd]
.	.	.	4cc
.	.	.	1cc
.	.	8dL	.
.	.	8cJ	.
.	.	1d	.
.	.	.	2bnXi
=7	=7	=7	=7
0r	0r	2.c	2.ee
.	.	4d	4dd
.	.	4e	2cc
.	.	4f	.
.	.	[2g	2b-y
=8	=8	=8	=8
0r	1.c	4g]	2a
.	.	4f	.
.	.	1f	4g
.	.	.	4f
.	.	.	1g
.	2c	2e	.
=9	=9	=9	=9
0r	1A	2f	[0f
.	.	2F	.
.	[1d	1B-y	.
=10	=10	=10	=10
1.F	2d]	1.A	0f]
.	2c	.	.
.	1c	.	.
2F	.	2F	.
=11	=11	=11	=11
1D	2.f	1F	0r
.	4e	.	.
[1G	2d	1r	.
.	2c	.	.
=12	=12	=12	=12
2G]	2B-y	0r	0r
2F	4A	.	.
.	4G	.	.
1F	1A	.	.
=13	=13	=13	=13
2.B-y	2.G	0r	0r
4A	4A	.	.
2G	4B-y	.	.
.	4c	.	.
2F	[2d	.	.
=14	=14	=14	=14
2E	4d]	0r	0r
.	4c	.	.
4D	1c	.	.
4C	.	.	.
1D	.	.	.
.	2BnXi	.	.
=15	=15	=15	=15
2.C	2.e	0r	0r
4D	4d	.	.
4E	2c	.	.
4F	.	.	.
[2G	2B-y	.	.
=16	=16	=16	=16
4G]	2A	0r	1r
4F	.	.	.
1F	4G	.	.
.	4F	.	.
.	1G	.	[1cc
2E	.	.	.
=17	=17	=17	=17
1F	0F	1.f	2cc]
.	.	.	2cc
1r	.	.	1a
.	.	2f	.
=18	=18	=18	=18
1.B-y	1r	2.d	1.dd
.	.	4e	.
.	1f	4f	.
.	.	4g	.
2A	.	[2a	2cc
=19	=19	=19	=19
1F	2f	2a]	1cc
.	2f	2a	.
[1G	1d	1g	[1b-y
=20	=20	=20	=20
2G]	1.e	1G	2b-]
2E	.	.	2g
1E	.	[1c	1g
.	2c	.	.
=21	=21	=21	=21
1.F	1.c	2c]	1.a
.	.	2A	.
.	.	1A	.
2F	2c	.	2f
=22	=22	=22	=22
2D	2d	1.f	2f
2BB-y	2d	.	2b-y
2F	2c	.	2a
2G	[2B-y	2d	[2g
=23	=23	=23	=23
2E	4B-]	2e	4g]
.	4A	.	4f
2F	4G	2c	1f
.	4F	.	.
1C	1G	1c	.
.	.	.	2e
=24	=24	=24	=24
[0F	0F	[0A	1f
.	.	.	2r
.	.	.	[2cc
=25	=25	=25	=25
1F]	0r	1A]	2cc]
.	.	.	2a
1r	.	2r	2b-y
.	.	[2f	2cc
=26	=26	=26	=26
0r	0r	2f]	1a
.	.	2d	.
.	.	2e	1cc
.	.	2f	.
=27	=27	=27	=27
0r	0r	1d	2.ff
.	.	.	4ee
.	.	1f	2dd
.	.	.	2cc
=28	=28	=28	=28
0r	0r	2.b-y	2dd
.	.	.	4g
.	.	4a	4a
.	.	2g	4b-y
.	.	.	4cc
.	.	2f	[2dd
=29	=29	=29	=29
1r	0r	2g	4dd]
.	.	.	4cc
.	.	2e	1cc
1G	.	2d	.
.	.	2g	2bnXi
=30	=30	=30	=30
2A	1r	2e	2cc
2F	.	1a	1ff
1B-y	1d	.	.
.	.	2g	4ee
.	.	.	4dd
=31	=31	=31	=31
1A	2e	0a	2cc
.	2c	.	2.ff
2r	1f	.	.
.	.	.	4ee
2D	.	.	[2dd
=32	=32	=32	=32
1A	1e	2r	2dd]
.	.	1a	2cc#i
1B-y	2r	.	1dd
.	2d	2g	.
=33	=33	=33	=33
1A	2e	1.a	2r
.	2.c	.	2ee
2F	.	.	2ff
.	4d	.	.
[2c	4e	4g	[2ee
.	4f	4f	.
=34	=34	=34	=34
2c]	2g	1e	4ee]
.	.	.	4dd
2A	2.a	.	1cc
1d	.	1f	.
.	4g	.	.
.	[2f	.	2bnXi
=35	=35	=35	=35
1c	2f]	1g	[0cc
.	2e	.	.
[1F	1f	[1a	.
=36	=36	=36	=36
1F]	2r	0a]	0cc]
.	2c	.	.
2r	[1f	.	.
2F	.	.	.
=37	=37	=37	=37
1.B-y	2f]	0r	0r
.	2e	.	.
.	2d	.	.
2A	2c	.	.
=38	=38	=38	=38
2G	1d	0r	0r
2F	.	.	.
2G	1e	.	.
[2A	.	.	.
=39	=39	=39	=39
2A]	1f	0r	0r
2F	.	.	.
2.G	2e	.	.
.	[2d	.	.
4F	.	.	.
=40	=40	=40	=40
2E	4d]	0r	2r
.	4c	.	.
2F	1c	.	2cc
1D	.	.	[1ff
.	2BnXi	.	.
=41	=41	=41	=41
1C	1c	2r	2ff]
.	.	2c	2ee
1r	1r	[1f	2dd
.	.	.	2cc
=42	=42	=42	=42
1r	0r	2f]	2dd
.	.	2e	2ee
2r	.	2d	2.ff
2F	.	2c	.
.	.	.	4ee
=43	=43	=43	=43
1.B-y	0r	2d	1.dd
.	.	2.g	.
.	.	4f	.
2A	.	2f	2cc
=44	=44	=44	=44
2G	1d	2B-y	1b-y
2G	.	2B-y	.
2.F	1f	2c	2a
.	.	2a	[2dd
4F	.	.	.
=45	=45	=45	=45
2G	2e	2g	4dd]
.	.	.	4cc
2A	2c	2f	1cc
2G	1d	2g	.
2G	.	2g	2bnXi
=46	=46	=46	=46
[0C	[0c	1e	0cc
.	.	[1g	.
=47	=47	=47	=47
0C]	0c]	1g]	1r
.	.	1e	[1cc
=48	=48	=48	=48
0r	0r	1.f	1cc]
.	.	.	1a
.	.	2d	.
=49	=49	=49	=49
0r	0r	1d	1.b-y
.	.	1g	.
.	.	.	2g
=50	=50	=50	=50
0r	0r	1.b-y	1g
.	.	.	1dd
.	.	4a	.
.	.	4g	.
=51	=51	=51	=51
0r	0r	2a	1ff
.	.	2f	.
.	.	2g	2ee
.	.	[2b-y	[2dd
=52	=52	=52	=52
0G	1r	4b-]	4dd]
.	.	4a	4cc
.	.	1a	4b-y
.	.	.	4a
.	[1d	.	1b-y
.	.	2g	.
=53	=53	=53	=53
1F	1d]	1a	0a
[1A	1c	1r	.
=54	=54	=54	=54
2A]	1.e	0r	0r
2G	.	.	.
1G	.	.	.
.	2d	.	.
=55	=55	=55	=55
1B-y	1d	0r	0r
2A	1f	.	.
2F	.	.	.
=56	=56	=56	=56
2G	2e	1r	0r
2.B-y	2.d	.	.
.	.	2r	.
4A	4c	.	.
2F	4B-y	[2a	.
.	4A	.	.
=57	=57	=57	=57
1G	1B-y	2a]	2r
.	.	2g	1dd
2D	1A	1a	.
2A	.	.	2cc
=58	=58	=58	=58
1B-y	2r	2f	1dd
.	1d	2g	.
1A	.	[1a	1ee
.	2c	.	.
=59	=59	=59	=59
2D	2.d	1a]	2.ff
1d	.	.	.
.	4e	.	4ee
.	2f	2r	4dd
.	.	.	4cc
2c	[2g	2e	[2ee
=60	=60	=60	=60
1B-y	4g]	2f	4ee]
.	4f	.	4dd
.	4e	2g	1dd
.	4d	.	.
1A	1e	1a	.
.	.	.	2cc#i
=61	=61	=61	=61
*M3/1	*M3/1	*M3/1	*M3/1
*met(O3)	*met(O3)	*met(O3)	*met(O3)
0D	0d	0a	0dd
1r	1r	1r	1r
=62	=62	=62	=62
0D	0f	0a	0dd
1D	1f	1a	1dd
=63	=63	=63	=63
1A	1e	0a	1cc
1D	0d	.	0ff
[1A	.	[1a	.
=64	=64	=64	=64
1A]	1c	1a]	1ee
0B-y	0d	1f	0dd
.	.	1g	.
=65	=65	=65	=65
0A	0e	0a	0cc
1r	1r	1r	1r
=66	=66	=66	=66
0D	0f	0a	0dd
1D	1f	1a	1dd
=67	=67	=67	=67
1A	1e	0a	1cc
1D	0d	.	0ff
[1A	.	[1a	.
=68	=68	=68	=68
1A]	1c	1a]	1ee
0B-y	0d	1f	0dd
.	.	1g	.
=69	=69	=69	=69
0A	0e	0a	0cc
1F	[1f	1a	1cc
=70	=70	=70	=70
1F	2f]	1a	1cc
.	2e	.	.
1G	0d	1g	1.b-y
1D	.	1f	.
.	.	.	2a
=71	=71	=71	=71
1F	1c	1f	0a
0G	0B-y	0d	.
.	.	.	1g
=72	=72	=72	=72
*M2/1	*M2/1	*M2/1	*M2/1
*met(C|)	*met(C|)	*met(C|)	*met(C|)
[0D	[0A	0d	1a
.	.	.	1r
=73	=73	=73	=73
0D]	0A]	1r	1dd
.	.	1f	[1ff
=74	=74	=74	=74
0r	0r	1.b-y	2ff]
.	.	.	2ee
.	.	.	2dd
.	.	2a	2cc
=75	=75	=75	=75
0r	0r	2g	2b-y
.	.	2f	1dd
.	.	1e	.
.	.	.	2cc#i
=76	=76	=76	=76
1r	1.f	1d	1dd
[1B-y	.	1r	1r
.	2d	.	.
=77	=77	=77	=77
2B-]	0d	1.g	1.b-y
2G	.	.	.
1G	.	.	.
.	.	2g	2b-y
=78	=78	=78	=78
1.d	1r	0f	0a
.	[1d	.	.
2c	.	.	.
=79	=79	=79	=79
2B-y	2d]	0r	0r
2A	2c	.	.
2G	2B-y	.	.
2F	2A	.	.
=80	=80	=80	=80
2B-y	2G	0r	0r
2.A	2F	.	.
.	2G	.	.
4G	.	.	.
[2G	2B-y	.	.
=81	=81	=81	=81
2G]	1A	1r	1.dd
2F#i	.	.	.
1G	1G	[1g	.
.	.	.	2cc
=82	=82	=82	=82
0r	0r	2g]	2b-y
.	.	2f	2a
.	.	2e	2g
.	.	2d	2b-y
=83	=83	=83	=83
0r	0r	2c	2a
.	.	2e	2g
.	.	2d	2b-y
.	.	[2c	[2a
=84	=84	=84	=84
1r	1r	4c]	4a]
.	.	4B-y	4g
.	.	4A	1g
.	.	4G	.
1D	[1d	1A	.
.	.	.	2f#i
=85	=85	=85	=85
[0G	0d]	1G	1g
.	.	1g	2r
.	.	.	[2b-y
=86	=86	=86	=86
1G]	1d	1g	2b-]
.	.	.	2b-y
[1B-y	[1d	[1f	[1b-y
=87	=87	=87	=87
2B-]	2d]	2f]	2b-]
2F	2c	2f	2a
1F	1c	1f	1a
=88	=88	=88	=88
1r	1r	1r	1r
[1A	[1c	[1e	[1a
=89	=89	=89	=89
1A]	1c]	1e]	1a]
1A	1c	1f	1cc
=90	=90	=90	=90
1G	1d	1g	1b-y
1B-y	1d	2.f	[1dd
.	.	4g	.
=91	=91	=91	=91
0A	0e	0a	2dd]
.	.	.	4cc#i
.	.	.	4bnXi
.	.	.	2cc#i
.	.	.	2a
=92	=92	=92	=92
[0D	[0d	[0f	1a
.	.	.	2r
.	.	.	2a
=93	=93	=93	=93
0D]	0d]	1f]	2b-y
.	.	.	2a
.	.	2r	1dd
.	.	2f	.
=94	=94	=94	=94
0r	1r	2e	2cc
.	.	2d	2ff
.	2r	2.g	2ee
.	2d	.	[2dd
.	.	4f	.
=95	=95	=95	=95
1r	1.g	2e	4dd]
.	.	.	4cc
.	.	4d	1cc
.	.	4c	.
1G	.	1d	.
.	2g	.	2bnXi
=96	=96	=96	=96
1.c	2.e	1c	0cc
.	4f	.	.
.	4g	2r	.
.	4a	.	.
2c	[2g	2c	.
=97	=97	=97	=97
2A	4g]	1f	1r
.	4f	.	.
2B-y	1f	.	.
1G	.	1g	2r
.	2e	.	2g
=98	=98	=98	=98
2.F	1f	2a	1cc
.	.	1A	.
4E	.	.	.
1D	2r	.	2dd
.	2d	2B-y	2ff
=99	=99	=99	=99
1C	1.g	4c	2.ee
.	.	4G	.
.	.	1c	.
.	.	.	8ddL
.	.	.	8ccJ
1G	.	.	2ee
.	2g	2B-y	[2dd
=100	=100	=100	=100
2A	2e	2c	4dd]
.	.	.	4cc
2F	2f	2A	1cc
1G	1d	4B-y	.
.	.	4G	.
.	.	[2g	2bnXi
=101	=101	=101	=101
0C	0c	4g]	0cc
.	.	4f	.
.	.	4e	.
.	.	4d	.
.	.	1e	.
=102	=102	=102	=102
1r	1r	1r	1r
[1F	[1c	[1f	[1a
=103	=103	=103	=103
2F]	2c]	2f]	2a]
2C	2c	2e	2g
[1C	[1c	[1e	[1g
=104	=104	=104	=104
1C]	1c]	1e]	1g]
1r	1r	1r	1r
=105	=105	=105	=105
1.F	1.c	1.f	1.a
2G	2B-y	2d	2g
=106	=106	=106	=106
1G	1B-y	1d	0g
[1c	[1e-X	2r	.
.	.	[2g	.
=107	=107	=107	=107
2c]	2e-]	2g]	1r
2A	2c	2f	.
2B-y	2d	2f	2r
2G	2B-y	2e	[2b-y
=108	=108	=108	=108
1F	2c	1f	2b-]
.	1c	.	2a
1r	.	2e	2g
.	2A	2c	[2f
=109	=109	=109	=109
1r	2B-y	2d	2f]
.	2G	2B-y	2e
2r	1F	2c	2f
[2F	.	[2f	[2a
=110	=110	=110	=110
2F]	1c	2f]	2a]
2C	.	2e	2.g
2D	2A	1d	.
.	.	.	4f
2BB-y	2B-y	.	[2f
=111	=111	=111	=111
1C	1G	1c	2f]
.	.	.	2e
[1F	[1F	2A	1f
.	.	2c	.
=112	=112	=112	=112
0F]	1F]	2d	2r
.	.	2c	2cc
.	1r	2.f	2dd
.	.	.	2cc
.	.	4e	.
=113	=113	=113	=113
0r	0r	2d	2.ff
.	.	2c	.
.	.	.	4ee
.	.	2f	2dd
.	.	2g	2dd
=114	=114	=114	=114
0r	0r	2e	2cc
.	.	1f	2.dd
.	.	.	4cc
.	.	2e	[2cc
=115	=115	=115	=115
0r	2r	1d	2cc]
.	2f	.	2bnXi
.	2e	[1c	[1cc
.	2c	.	.
=116	=116	=116	=116
2r	1g	1c]	1cc]
2c	.	.	.
2A	2.c	2r	1r
2F	.	2f	.
.	4d	.	.
=117	=117	=117	=117
1c	4e	2e	0r
.	4f	.	.
.	2.g	1c	.
2A	.	.	.
.	4f	.	.
2B-y	[2f	2d	.
=118	=118	=118	=118
1G	2f]	1B-y	2r
.	2e	.	2b-y
2F	2f	2c	2a
2D	2B-y	2d	2f
=119	=119	=119	=119
2C	2A	2e	2.cc
1F	2F	2.f	.
.	.	.	4b-y
.	2.c	.	2a
.	.	4c	.
2E	.	2e	[2g
.	4B-y	.	.
=120	=120	=120	=120
2F	2A	1d	2g]
2BB-y	2B-y	.	1f
1C	1G	1c	.
.	.	.	2e
=121	=121	=121	=121
00F	00F	00c	00f
=122||	=122||	=122||	=122||
*M2/1	*M2/1	*M2/1	*M2/1
*met(C|)	*met(C|)	*met(C|)	*met(C|)
!!section: Secunda pars: Noli virgo inviolata
!!!OMD: Secunda pars: Noli virgo inviolata
0r	0r	0f	0r
=123	=123	=123	=123
0r	0r	1f	0r
.	.	1g	.
=124	=124	=124	=124
0r	0r	1.f	0cc
.	.	2g	.
=125	=125	=125	=125
0r	0r	2a	1cc
.	.	2f	.
.	.	1b-y	1dd
=126	=126	=126	=126
0r	0r	1.a	1.cc
.	.	[2g	2dd
=127	=127	=127	=127
0r	0r	4g]	2ee
.	.	4f	.
.	.	2e	2cc
.	.	1d	1ff
=128	=128	=128	=128
0r	0r	1c	1.ee
.	.	[1g	.
.	.	.	[2dd
=129	=129	=129	=129
0r	0r	1g]	4dd]
.	.	.	4cc
.	.	.	2b-y
.	.	1f	1a
=130	=130	=130	=130
0r	0r	1.b-y	1g
.	.	.	[1dd
.	.	2a	.
=131	=131	=131	=131
0r	0r	2g	1dd]
.	.	2f	.
.	.	1e	1cc
=132	=132	=132	=132
0r	0r	1d	1.ff
.	.	1a	.
.	.	.	2ee
=133	=133	=133	=133
0r	0r	2b-y	2dd
.	.	1a	2cc
.	.	.	1b-y
.	.	2g	.
=134	=134	=134	=134
0r	0r	0a	1a
.	.	.	1ee
=135	=135	=135	=135
0r	0r	1r	1ff
.	.	1a	2ee
.	.	.	2cc
=136	=136	=136	=136
0r	0r	1b-y	1dd
.	.	2a	2cc
.	.	2f	2ff
=137	=137	=137	=137
0r	0c	2g	2ee
.	.	2.a	2.cc
.	.	4g	4b-y
.	.	[2f	2a
=138	=138	=138	=138
1r	1c	2f]	1g
.	.	2e	.
[1F	1d	[1f	4f
.	.	.	4g
.	.	.	4a
.	.	.	4b-y
=139	=139	=139	=139
1F]	1c	2f]	2cc
.	.	4e	1b-y
.	.	4d	.
1F	1f	1c	.
.	.	.	2a
=140	=140	=140	=140
1G	2e	1B-y	1b-y
.	1d	.	.
1F	.	2r	1r
.	2c	[2f	.
=141	=141	=141	=141
1B-y	2d	4f]	1r
.	.	4d	.
.	2G	2.g	.
2A	1c	.	2r
.	.	4f	.
2F	.	2f	2a
=142	=142	=142	=142
1G	1B-y	2e	1b-y
.	.	1d	.
1F	2.f	.	2a
.	.	2c	[2f
.	4e	.	.
=143	=143	=143	=143
2.B-y	4d	2B-y	2f]
.	4c	.	.
.	1B-y	4G	2.g
4A	.	4A	.
2G	.	4B-y	.
.	.	4c	4e
2F	2A	[2d	[2a
=144	=144	=144	=144
2E	2B-y	4d]	2a]
.	.	4c	.
2C	2c	1c	2.g
2D	1F	.	.
.	.	.	4f
2D	.	2BnXi	[2f
=145	=145	=145	=145
1C	1G	1c	2f]
.	.	.	2e
2r	1F	[1A	[1f
[2F	.	.	.
=146	=146	=146	=146
2F]	1r	1A]	0f_
2G	.	.	.
2A	1c	1r	.
2F	.	.	.
=147	=147	=147	=147
1B-y	1d	0r	1f]
[1A	2e	.	1r
.	2c	.	.
=148	=148	=148	=148
2A]	1f	0r	0r
4G	.	.	.
4F	.	.	.
4G	2e	.	.
4A	.	.	.
[2B-y	[2d	.	.
=149	=149	=149	=149
4B-]	2d]	0r	0r
4A	.	.	.
1A	2c	.	.
.	1B-y	.	.
2G	.	.	.
=150	=150	=150	=150
2A	0A	0r	0r
2D	.	.	.
[1F	.	.	.
=151	=151	=151	=151
2F]	1r	0r	0r
2E	.	.	.
1D	1A	.	.
=152	=152	=152	=152
1C	1.c	0r	0r
[1F	.	.	.
.	2B-y	.	.
=153	=153	=153	=153
1F]	1A	0r	0r
1E	1G	.	.
=154	=154	=154	=154
2E	0c	0r	0r
4D	.	.	.
4C	.	.	.
2E	.	.	.
2F	.	.	.
=155	=155	=155	=155
0G	2B-y	1r	0r
.	4G	.	.
.	4A	.	.
.	4B-y	2r	.
.	4c	.	.
.	[2d	2G	.
=156	=156	=156	=156
2E	4d]	1c	0r
.	4c	.	.
2F	1c	.	.
1D	.	1d	.
.	2BnXi	.	.
=157	=157	=157	=157
2C	1c	1e	1g
1c	.	.	.
.	2r	1c	1cc
2A	[2f	.	.
=158	=158	=158	=158
1B-y	2f]	2r	1dd
.	1g	2d	.
1c	.	2g	1ee
.	[2e	2g	.
=159	=159	=159	=159
1A	2e]	1a	1cc
.	1f	.	.
1B-y	.	1d	1ff
.	2d	.	.
=160	=160	=160	=160
2c	2.g	2r	2ee
2G	.	2d	2.dd
.	4f	.	.
2A	2e	2.a	.
.	.	.	4cc
2F	2f	.	2cc
.	.	4a	.
=161	=161	=161	=161
2G	2d	2g	2b-y
2A	2c	2f	1cc
1G	1d	2g	.
.	.	2g	2bnXi
=162	=162	=162	=162
1C	2c	0e	0cc
.	1g	.	.
1c	.	.	.
.	2e	.	.
=163	=163	=163	=163
2A	2f	0r	0r
2B-y	2d	.	.
2G	2e	.	.
2A	[2f	.	.
=164	=164	=164	=164
2B-y	2f]	0r	0r
1c	2e	.	.
.	1d	.	.
2BnXi	.	.	.
=165	=165	=165	=165
2c	1c	0r	0r
2F	.	.	.
2G	2r	.	.
2A	2c	.	.
=166	=166	=166	=166
2F	2d	1r	0r
2.c	2e	.	.
.	2c	2r	.
4B-y	.	.	.
2A	[2f	2c	.
=167	=167	=167	=167
1G	2f]	2d	1r
.	2e	2e	.
2F	1f	2c	2r
2A	.	[2f	2cc
=168	=168	=168	=168
1G	1B-y	2f]	2dd
.	.	2e	2ee
1F	2r	2f	2cc
.	[2c	2a	[2ff
=169	=169	=169	=169
1c	4c]	1g	2ff]
.	4d	.	.
.	4e	.	2ee
.	4c	.	.
2F	2d	2r	2ff
2G	2B-y	[2g	[2dd
=170	=170	=170	=170
1A	1c	4g]	4dd]
.	.	4e	4cc
.	.	2f	1cc
1G	1d	1g	.
.	.	.	2bnXi
=171	=171	=171	=171
0C	0c	2e	1cc
.	.	1g	.
.	.	.	2r
.	.	2e	[2cc
=172	=172	=172	=172
0r	0r	1f	2cc]
.	.	.	2a
.	.	2g	2b-y
.	.	[2a	[2cc
=173	=173	=173	=173
0r	0r	4a]	2cc]
.	.	4a	.
.	.	1g	2b-y
.	.	.	1a
.	.	2f#i	.
=174	=174	=174	=174
0r	0r	2g	1g
.	.	2c	.
.	.	2f	2r
.	.	2e	2g
=175	=175	=175	=175
0r	0r	2f	2cc
.	.	2g	2b-y
.	.	2e	2cc
.	.	2f	2dd
=176	=176	=176	=176
0r	1r	2g	2b-y
.	.	2.a	2.cc
.	2r	.	.
.	.	4g	4b-y
.	2F	4f	4a
.	.	4e	4g
=177	=177	=177	=177
1r	2B-y	4d	2f
.	.	4c	.
.	2A	1f	2a
2r	2B-y	.	1g
2C	2c	2e	.
=178	=178	=178	=178
2F	2A	2.c	2f
2E	1c	.	2g
.	.	4B-y	.
2F	.	2A	2a
2G	[2B-y	2d	[2g
=179	=179	=179	=179
2E	4B-]	2e	4g]
.	4A	.	4f
2F	4G	2c	1f
.	4F	.	.
1C	1G	1c	.
.	.	.	2e
=180	=180	=180	=180
2r	4F	1r	0f
.	4G	.	.
2c	4A	.	.
.	4B-y	.	.
2A	2c	[1f	.
[2B-y	[2d	.	.
=181	=181	=181	=181
4B-]	4d]	1f]	0r
4F	4c	.	.
2A	1f	.	.
1G	.	1g	.
.	2e	.	.
=182	=182	=182	=182
0F	0f	1.a	1r
.	.	.	[1cc
.	.	2f	.
=183	=183	=183	=183
0r	0r	1f	1cc]
.	.	1b-y	1dd
=184	=184	=184	=184
0r	0r	1g	1.ee
.	.	2.a	.
.	.	.	2cc
.	.	4g	.
=185	=185	=185	=185
0r	0r	2f	1cc
.	.	2e	.
.	.	1d	1ff
=186	=186	=186	=186
1r	0r	2c	2ee
.	.	2g	2dd
[1F	.	2.a	2.ff
.	.	4g	4ee
=187	=187	=187	=187
1F]	0r	2f	2dd
.	.	2e	1cc
1G	.	1d	.
.	.	.	2bnXi
=188	=188	=188	=188
1.A	1r	1c	0cc
.	[1c	1r	.
2F	.	.	.
=189	=189	=189	=189
1F	1c]	0r	0r
1B-y	1d	.	.
=190	=190	=190	=190
1G	1.e	0r	0r
2.A	.	.	.
.	2c	.	.
4G	.	.	.
=191	=191	=191	=191
2F	1c	0r	0r
2E	.	.	.
1D	1f	.	.
=192	=192	=192	=192
2C	2e	0r	1r
2G	2d	.	.
2.A	2f	.	[1cc
.	4F	.	.
4G	4G	.	.
=193	=193	=193	=193
2F	4A	0f	1cc]
.	4B-y	.	.
2E	1c	.	.
1D	.	.	1dd
.	2BnXi	.	.
=194	=194	=194	=194
2C	1c	1g	1ee
1c	.	.	.
.	2r	1a	1cc
2A	[2f	.	.
=195	=195	=195	=195
1.B-y	2f]	1f	2.ff
.	2d	.	.
.	.	.	4ee
.	2.f	2.b-y	2dd
2F	.	.	2cc
.	4e	4a	.
=196	=196	=196	=196
2G	2d	2g	2b-y
2A	2c	2f	1cc
1G	1d	1g	.
.	.	.	2bnXi
=197	=197	=197	=197
0C	0c	2r	1cc
.	.	1g	.
.	.	.	2r
.	.	2f	[2cc
=198	=198	=198	=198
0r	0r	2e	2cc]
.	.	2d	2b-y
.	.	2f	2a
.	.	[2e	2g
=199	=199	=199	=199
0r	1r	4e]	1b-y
.	.	4f	.
.	.	2g	.
.	2r	2f	2a
.	[2g	2e	2g
=200	=200	=200	=200
1r	2g]	2d	1a
.	2f	2A	.
2r	1e	2c	[1g
[2c	.	2c	.
=201	=201	=201	=201
2c]	2d	1G	1g]
2B-y	2g	.	.
2A	2f	1r	1r
2G	2e	.	.
=202	=202	=202	=202
2B-y	2d	0r	0r
2.A	2.c	.	.
4G	4B-y	.	.
[2G	4A	.	.
.	4G	.	.
=203	=203	=203	=203
2G]	1A	1r	2r
2F#i	.	.	1cc
1G	1G	2r	.
.	.	[2g	2b-y
=204	=204	=204	=204
0r	2r	2g]	2.a
.	1c	2f	.
.	.	.	4g
.	.	2.e	2a
.	2B-y	.	2b-y
.	.	4d	.
=205	=205	=205	=205
0r	2.A	2e	1.cc
.	.	1f	.
.	4G	.	.
.	2A	.	.
.	2B-y	[2g	4b-y
.	.	.	4a
=206	=206	=206	=206
2r	1c	2g]	0g
1c	.	4f	.
.	.	4e	.
.	1G	2d	.
2B-y	.	[2g	.
=207	=207	=207	=207
2.A	0r	2g]	2r
.	.	2f	1cc
4G	.	.	.
2A	.	2.e	.
2B-y	.	.	2b-y
.	.	4d	.
=208	=208	=208	=208
1c	1r	2e	2.a
.	.	2f	.
.	.	.	4g
2B-y	2r	2g	2b-y
2A	[2c	[2f	2f
=209	=209	=209	=209
1G	2c]	2f]	1g
.	2B-y	2e	.
1F	2.A	2.f	2a
.	.	.	[2cc
.	4G	4f	.
=210	=210	=210	=210
2r	2A	2e	2cc]
2G	2B-y	2d	2b-y
2F	2.c	2f	2a
2C	.	2e	[2g
.	4B-y	.	.
=211	=211	=211	=211
2D	2A	1d	4g]
.	.	.	4f
2BB-y	2B-y	.	1f
2C	1G	1c	.
2C	.	.	2e
=212	=212	=212	=212
*M3/1	*M3/1	*M3/1	*M3/1
*met(O3)	*met(O3)	*met(O3)	*met(O3)
0F	0F	0c	0f
1r	1r	1r	1r
=213	=213	=213	=213
0F	0c	0f	0a
1F	1c	1f	1a
=214	=214	=214	=214
0B-y	1B-y	1d	1g
.	1.d	1.B-y	0f
[1G	.	.	.
.	2c	2c	.
=215	=215	=215	=215
1G]	0B-y	2d	1e
.	.	2B-y	.
0F	.	0c	0f
.	1A	.	.
=216	=216	=216	=216
1r	1B-y	1d	1f
1r	1F	1c	1a
1C	1G	1e	1g
=217	=217	=217	=217
0F	0A	1d	1f
.	.	0c	1.a
[1D	[1F	.	.
.	.	.	2g
=218	=218	=218	=218
1D]	1F]	1B-y	0f
0C	0G	0c	.
.	.	.	1e
=219	=219	=219	=219
0BB-y	0B-y	0d	0f
1r	1r	1r	1r
=220	=220	=220	=220
0F	0c	0f	0a
1F	1c	1f	1a
=221	=221	=221	=221
0B-y	1B-y	1d	1g
.	1.d	1.B-y	0f
[1G	.	.	.
.	2c	2c	.
=222	=222	=222	=222
1G]	0B-y	2d	1e
.	.	2B-y	.
0F	.	0c	0f
.	1A	.	.
=223	=223	=223	=223
1r	1B-y	1d	1f
1r	1F	1c	1a
1C	1G	1e	1g
=224	=224	=224	=224
0F	0A	1d	1f
.	.	0c	1.a
[1D	[1F	.	.
.	.	.	2g
=225	=225	=225	=225
1D]	1F]	1B-y	0f
0C	0G	0c	.
.	.	.	1e
=226	=226	=226	=226
0.BB-y	0.B-y	0.d	[0.fl
=227	=227	=227	=227
00Fl	00Al	00cl	00f]
==	==	==	==
*-	*-	*-	*-
!!!system-decoration: [*]
!!!RDF**kern: i = editorial accidental
!!!RDF**kern: l = terminal long
!!!ENC: Benjamin Ory
!!!END: 2024/3/14
!!!EED: Benjamin Ory
!!!EEV: 2024/03/14
!!!YEC: Copyright 2024 Benjamin Ory, All Rights Reserved
!!!ONB: Translated from MusicXML on 2024/03/14